X:151
T:GB/6a/151 Seventeen Come Sunday (continued) 
%%VWML:GB-6a-151-0
F:http://www.vwml.org/record/GB/6a/151
C:Transcribed by Simon Furey and Lewis Jones
L:1/4
M:4/4
I:linebreak $
K:Edor
!fermata!B/ A/ | G E F D | E E E F/G/ | A F D F/G/ |[M:6/4] A2 B2 B3/2 c/ | d B d2 e2 |
d B d2 c B |$[M:4/4] B A F E | B c d F | F E E2 | F/G/A/F/ D2 |"^(a)" E B B/A/G/F/ | E3/2 D/ E |]$ "^(a) var." D B B/A/G/F/ |

